X:1
T:nskepolska
C:Maria Larsson
R:Polska
Z:TRANSKRIPTION GJORD AV Robert Bostrm, 2008-12-28
D: Svanevit - Svanevit
M:3/4
L:1/8
K:Em
|:E3/2F/2G2G3/2F/2|EF/2G/2 AB/2c/2 B2|B3/2^c/2d2d3/2c/2|AB/2^c/2 B3/2A/2 GF|
E3/2F/2G2G3/2F/2|EF/2G/2 AB/2c/2 B2|B3/2^c/2d2d3/2c/2|AB/2^c/2 B4:|
|:Bg gf/2e/2 fe/2f/2|d4c2|Bf fd/2e/2 fB|cB/2c/2 dc/2d/2 eg|
gg gf/2e/2 fe/2f/2|d4c2|Bf fd/2e/2 fB|cB/2c/2 dc/2d/2 e2:|
